dist/img/svg/tg_c.svg

<svg width="39" height="39" viewBox="0 0 39 39" fill="none" xmlns="http://www.w3.org/2000/svg">
<path fill-rule="evenodd" clip-rule="evenodd" d="M4.99951 18.7791C14.18 14.7571 20.3017 12.1056 23.3648 10.8245C32.1104 7.16666 33.9276 6.53126 35.1121 6.51028C35.3726 6.50566 35.9551 6.57059 36.3324 6.87845C36.651 7.1384 36.7386 7.48956 36.7806 7.73602C36.8225 7.98248 36.8748 8.54393 36.8332 8.98263C36.3593 13.9899 34.3086 26.1412 33.2654 31.7494C32.8239 34.1224 31.9547 34.9181 31.1132 34.9959C29.2844 35.1652 27.8957 33.7806 26.1245 32.6131C23.3528 30.7861 21.787 29.6488 19.0966 27.8661C15.9873 25.8057 18.0029 24.6734 19.7749 22.8227C20.2386 22.3384 28.2962 14.9686 28.4522 14.3001C28.4717 14.2165 28.4898 13.9048 28.3057 13.7402C28.1215 13.5756 27.8498 13.6319 27.6536 13.6767C27.3757 13.7401 22.9479 16.683 14.3703 22.5053C13.1134 23.3731 11.9751 23.7959 10.9551 23.7738C9.83069 23.7493 7.66776 23.1345 6.05985 22.6089C4.08768 21.9643 2.52023 21.6234 2.65672 20.5287C2.72781 19.9584 3.50874 19.3752 4.99951 18.7791Z" fill="#3390EC"/>
</svg>

<svg width="39" height="39" viewBox="0 0 39 39" fill="none" xmlns="http://www.w3.org/2000/svg"><path fill-rule="evenodd" clip-rule="evenodd" d="M5 18.78c9.18-4.023 15.302-6.674 18.365-7.956C32.11 7.168 33.928 6.532 35.112 6.51c.26-.004.843.06 1.22.368.319.26.407.612.449.858.041.246.094.808.052 1.247-.474 5.007-2.524 17.158-3.568 22.766-.441 2.373-1.31 3.17-2.152 3.247-1.829.17-3.217-1.215-4.988-2.383-2.772-1.827-4.338-2.964-7.028-4.747-3.11-2.06-1.094-3.193.678-5.043.464-.485 8.521-7.854 8.677-8.523.02-.084.038-.395-.146-.56-.184-.164-.456-.108-.652-.063-.278.063-4.706 3.006-13.284 8.828-1.257.868-2.395 1.29-3.415 1.269-1.124-.025-3.287-.64-4.895-1.165-1.972-.645-3.54-.986-3.403-2.08.07-.57.852-1.154 2.343-1.75z" fill="#3390EC"/></svg>
